X:1
T:Title
%%score { ( 1 3 ) | ( 2 4 ) }
L:1/8
M:4/4
K:Eb
V:1 treble nm="Grand Piano"
V:3 treble 
V:2 bass 
V:4 bass 
V:1
 z4 z2[Q:1/4=104] E>F | G2 E2 z2 [DF]>[EG] | [FA]2 [DF]2 z2 [EG]>[FA] | [GB]2 [EG]2 [FA]2 [EG]2 | %4
[M:3/4] [DF]6 |[M:1/4] [DF]>[EG] |[M:4/4] [FA]2 [FA]2 [EG]2 [DF]2 | [EG]2 [GB]2 [GB]2 [_Gc]2 | %8
 d2 F2 F c3 |[M:2/4] [B,DB]4 | c4 |[M:4/4] B4 A4 | z2 [EG]4 z2 | A>G [DF]4 [DF]>[EG] | %14
 [FA]2 [GB]2 [Ad]2 [Ac]2 | [GB]6 c>d | [Ge]2 G2 A2 B2 | c2 c4 d>c | B2 c2 [EG]2 [DF]2 | %19
[M:3/4] E6 |] %20
V:2
 z4 z2 [E,G,]>[E,A,E] | [E,B,E]2 [E,G,]2 z2 [B,,B,]>[B,,B,] | [B,,B,]2 [B,,B,]2 z2 [E,B,]>[E,B,] | %3
 [E,B,]2 [E,B,]2 [D,B,]2 [E,B,]2 |[M:3/4] [B,,B,]6 |[M:1/4] [B,,B,]>[B,,B,] | %6
[M:4/4] [B,,B,]2 [B,,B,]2 [C,B,]2 [D,B,]2 | [E,B,]2 [E,E]2 [E,B,]2 [E,B,]2 | %8
 [F,B,F]2 [F,B,D]2 [F,=A,E] [F,A,E]3 |[M:2/4] B,,4 | A4 |[M:4/4] G4 F4 | E>E B,,2 E,2 _D>D | %13
 [F,B,]2 z2 z4 | [B,,B,]2 [B,,B,]2 [B,,B,]2 [D,B,]2 | [E,B,]6[K:treble] [B,A]>[B,A] | %16
 [E,B,]2 [E,B,E]2 [F,B,D]2 [G,_DE]2 | [A,CE]2[K:treble] [=A,E_G]4 [A,DG]>[A,EG] | %18
 [B,EG]2 [B,EG]2[K:bass] [B,,B,]2 [B,,A,]2 |[M:3/4] [E,G,]6 |] %20
V:3
 x8 | x8 | x8 | x8 |[M:3/4] x6 |[M:1/4] x2 |[M:4/4] x8 | x8 | x8 |[M:2/4] x4 | x4 |[M:4/4] x8 | %12
 G>G B,2 B,2 G>G | x8 | x8 | x8 | x8 | x8 | x8 |[M:3/4] x6 |] %20
V:4
 x8 | x8 | x8 | x8 |[M:3/4] x6 |[M:1/4] x2 |[M:4/4] x8 | x8 | x8 |[M:2/4] x4 | x4 |[M:4/4] x8 | %12
 [E,B,]2 z2 z2 [=E,B,]2 | D>D [B,,B,]2 [B,,B,]2 [B,,B,]>[B,,B,] | x8 | x6[K:treble] x2 | x8 | %17
 x2[K:treble] x6 | x4[K:bass] x4 |[M:3/4] x6 |] %20

